X: 647
T: Restauration Spring Garden Hornpipe
M:3/2
L:1/8
S: 8: MCJLSH3 http://www.cpartington.plus.com/links/Walsh.abc
Z: Pete Stewart 2004
B: Walsh "Third Book of the most Celebrated jiggs, Lancashire hornpipes, ..."
K:Gm
gab2a2g^fg2d2 | cde2d2cBc2A2 | Bcd2c2BAB2AB | G2ed cBAG^F4 |
gab2a2g^fg2d2 | cde2d2cBc2A2 | Bcd2c2BAB2AG | D2G2^FGAFG4 ||
def2f2ede2c2 | CDE2D2C=B,C4 | cde2e2dcd2B2 | B,CD2C2B,A,B,4 |
b2aba2g^fg2d2 | e2dc d2c=Bc4 | bagf edcB AGFE | DCB,A, B,GA,^F G4 ||

%%sep 1 1 500
%%sep 1 1 500
